svgs/regular/curling-stone.svg

<svg xmlns="http://www.w3.org/2000/svg" viewBox="0 0 576 512"><!--! Font Awesome Pro 6.6.0 by @fontawesome - https://fontawesome.com License - https://fontawesome.com/license (Commercial License) Copyright 2024 Fonticons, Inc. --><path d="M264 80c-22.1 0-40 17.9-40 40l0 24 192 0c35.3 0 64 28.7 64 64l0 1.1c54.3 7.8 96 54.4 96 110.9l0 48c0 61.9-50.1 112-112 112l-352 0C50.1 480 0 429.9 0 368l0-48c0-56.4 41.7-103.1 96-110.9l0-1.1c0-35.3 28.7-64 64-64l16 0 0-24c0-48.6 39.4-88 88-88l128 0c13.3 0 24 10.7 24 24s-10.7 24-24 24L264 80zM112 432l352 0c35.3 0 64-28.7 64-64L48 368c0 35.3 28.7 64 64 64zM48 320l480 0c0-35.3-28.7-64-64-64l-352 0c-35.3 0-64 28.7-64 64z"/></svg>

<svg xmlns="http://www.w3.org/2000/svg" viewBox="0 0 576 512"><!--! Font Awesome Pro 6.4.2 by @fontawesome - https://fontawesome.com License - https://fontawesome.com/license (Commercial License) Copyright 2023 Fonticons, Inc. --><path d="M264 80c-22.1 0-40 17.9-40 40v24H416c35.3 0 64 28.7 64 64v1.1c54.3 7.8 96 54.4 96 110.9v48c0 61.9-50.1 112-112 112H112C50.1 480 0 429.9 0 368V320c0-56.4 41.7-103.1 96-110.9V208c0-35.3 28.7-64 64-64h16V120c0-48.6 39.4-88 88-88H392c13.3 0 24 10.7 24 24s-10.7 24-24 24H264zM112 432H464c35.3 0 64-28.7 64-64H48c0 35.3 28.7 64 64 64zM48 320H528c0-35.3-28.7-64-64-64H112c-35.3 0-64 28.7-64 64z"/></svg>
